dist/svg/icons/repo.svg

<svg height="16" width="12" xmlns="http://www.w3.org/2000/svg" viewBox="0 0 12 16">
  <path d="M4 9h-1v-1h1v1z m0-3h-1v1h1v-1z m0-2h-1v1h1v-1z m0-2h-1v1h1v-1z m8-1v12c0 0.55-0.45 1-1 1H6v2l-1.5-1.5-1.5 1.5V14H1c-0.55 0-1-0.45-1-1V1C0 0.45 0.45 0 1 0h10c0.55 0 1 0.45 1 1z m-1 10H1v2h2v-1h3v1h5V11z m0-10H2v9h9V1z" />
</svg>

<svg xmlns="http://www.w3.org/2000/svg" width="12" height="16" viewBox="0 0 12 16"><path d="M4 9H3V8h1v1zm0-3H3v1h1V6zm0-2H3v1h1V4zm0-2H3v1h1V2zm8-1v12c0 .55-.45 1-1 1H6v2l-1.5-1.5L3 16v-2H1c-.55 0-1-.45-1-1V1c0-.55.45-1 1-1h10c.55 0 1 .45 1 1zm-1 10H1v2h2v-1h3v1h5v-2zm0-10H2v9h9V1z"/></svg>
